X: 1063
T: The Merry Maiden
R:double jig
N:"collected by O'Reilly"
B:O'Neill's 1063
Z:Transcribed by henrik.norbeck@mailbox.swipnet.se
M:6/8
L:1/8
K:D
(d/B/)|ADD BAF|ABd edB|ADD BAF|AFE E2B|
ADD BAF|ABd edB|AdB AGE|FDD D2:|
B|AFA d2e|fdf ecA|BAB d2e|faf gfe|
AFA d2e|fdf ecA|BdB AGE|FDD D2:|


